X:123
T:B123-  The downright squire
Q:1/4=120
L:1/4
M:3/4
K:Ephrygian
C/2D/2|E3/2F/2G|A2G|F3/2E/2D|EAD|\
G/2F/2 E/2D/2E|D2D|F3/2G/2A|G2F|\
E3/2D/2C|B,ED|C2B,|C2E|\
c3/2B/2c|G2A|A2F|E3/2F/2E|\
B,CD|D3/2G/2E|DA,B,|A,2A,|\
zDE|F2G|Ac=B|A3/2G/2F|\
E2D|C2B,|zCD|E2|]
